X: 2
T: The Holly Bush
R: reel
M: 4/4
L: 1/8
K: Dmix
A2FA DAFA|ABde fded|cG~G2 EG~G2|cedc AGFG|A2FA DAFA|ABde fded|cGG2 cedc|AFGE DEFG:||:Add^c defg|adde dcAF|GccB cde/f/g|afge dcAG|Add^c defg |adde dcAB|cedB cAGc|AFGE DEFG:|


Tune 1566	Setting 23574

